src/icons/glyph/Payments.svg

<svg width="24" height="24" viewBox="0 0 24 24" fill="none" xmlns="http://www.w3.org/2000/svg">
<path fill-rule="evenodd" clip-rule="evenodd" d="M3 6H21V9H3L3 6ZM3 12L3 18H21V12H3ZM1 6C1 4.89543 1.89543 4 3 4H21C22.1046 4 23 4.89543 23 6V18C23 19.1046 22.1046 20 21 20H3C1.89543 20 1 19.1046 1 18V6Z" fill="currentColor"/>
</svg>

<svg xmlns="http://www.w3.org/2000/svg" width="24" height="24" fill="currentColor" viewBox="0 0 24 24">
  <path fill-rule="evenodd" d="M1 6a2 2 0 0 1 2-2h18a2 2 0 0 1 2 2v12a2 2 0 0 1-2 2H3a2 2 0 0 1-2-2V6Zm2 0h18v3H3V6Zm0 6v6h18v-6H3Z" clip-rule="evenodd"/>
</svg>
